!!!!SEGMENT: pl-wn--mus-8170--001-001_zelenski-wladyslaw--koledy-christus-natus-est-nobis.krn
!!!cenid: 18xx:3663
!!!COM: Żeleński, Władysław
!!!COM-rismID: pe41024455
!!!CDT: 1837/07/06-1921/01/23
!!!CNT: Polish
!!!GTL: Kolędy
!!!OTL: Christus natus est nobis
!!!OMV: 001
!!!PDT:
!!!AGN:
!!!YEC: Copyright 2022 Narodowy Instytut Fryderyka Chopina (https://polishscores.org)
!!!YEM: License CC-BY-4.0 (https://creativecommons.org/licenses/by/4.0)
!!!SMS-siglum: PL-Wn
!!!SMS-shelfmark: Mus.8170
!!!SMS-shelfwork: 001-001 G
!!!SMS-variant:
!!!SMS-altvar:
!!!NIFC-rismSourceID:
!!!NIFC-rismChildID:
!!!NIFC-islandoraID: none
!!!URL-pdf-islandora:
!!!URL-scan: https://polona2.pl/item/koledy-w-ukladzie-na-chor-mieszany,NDU5Mzc1NDg/0 @EN{Scan on Polona} @PL{Skany w portalu Polona}
!!!IIIF: https://polona2.pl/iiif/item/NDU5Mzc1NDg/manifest.json
!!!ONB-nifc:
!!!AIN: 1 feme 1 male
!!!key: F
**kern	**kern	**text
*part2	*part1	*
*staff2	*staff1	*
*I"Coro	*I"Coro	*
*I'Coro	*I'Coro	*
*ICvox	*ICvox	*
*Imale	*Ifeme	*
*IGcoro	*IGcoro	*
*clefF4	*clefG2	*
*F:	*F:	*
*k[b-]	*k[b-]	*
*M3/4	*M3/4	*
=1	=1	=1
*xywh-#2:380,871,2689,279	*xywh-#2:405,186,2800,755	*
*^	*^	*
2A/	2F\	2cc/	2f\	Chri-
4G/	4E\	4cc/	4g\	-stus
=2	=2	=2	=2	=2
2A/	2D\	2dd/	(4g\	Chri-
.	.	.	4f\)	.
4d/	4BB-\	4dd/	8f\L	-stus
.	.	.	8g\J	.
=3	=3	=3	=3	=3
4c/	4F\	4ff/	4a\	na-
4c/	4G\	4ee/	4a\	-tus
4B-/	4B-\	4dd/	4f\	est
=4	=4	=4	=4	=4
(4B-/	(4B-\	4dd/	2f\	no-
4c/)	4A\)	2cc/	.	-bis
4G/	4E\	.	4g\	.
=5	=5	=5	=5	=5
4A/	4F\	4a/	4f\	Ve-
4A/	4D\	4a/	4f\	-ni-
4c/	4C\	4a/	4e\	-te
!LO:LB:g=original	!	!	!	!
=6	=6	=6	=6	=6
*xywh-#2:377,1448,2692,290	*xywh-#2:377,1448,2692,290	*xywh-#2:342,1119,2786,395	*xywh-#2:342,1119,2786,395	*
4F/	4BB-\	4b-/	4d\	ve-
4G/	4GG\	4b-/	4e\	-ni-
4F/	4GG\	4b-/	4d\	-te
=7	=7	=7	=7	=7
4F/	4C\	4g/	4.d\	a-
4E/	4C\	4g/	.	-do-
.	.	.	8c\	.
4B-/	4C\	4g/	8d\L	-re-
.	.	.	8e\J	.
=8	=8	=8	=8	=8
2A/	2FF\	2f/	2c\	-mus!
4r	4ryy	4r	4ryy	.
=9||	=9||	=9||	=9||	=9||
2c/	2C\	2g/	2e\	Ve-
8c/	8C\	8g/	8e\	-ni-
8c/	8C\	8g/	8e\	-te
=10	=10	=10	=10	=10
2c/	2F\	2a/	2f\	a-
4c/	8B-\L	8g/L	8e\L	-do-
.	8A\J	8a/J	8f\J	.
=11	=11	=11	=11	=11
(2B-/	(2G\	(2b-/	(4d\	-re-
.	.	.	4e\	.
4c/)	4F\)	4a/)	4f\)	.
!LO:LB:g=original	!	!	!	!
=12	=12	=12	=12	=12
*xywh-#2:375,2018,2668,293	*xywh-#2:375,2018,2668,293	*xywh-#2:372,1717,2709,384	*xywh-#2:372,1717,2709,384	*
2c/	2C\	2g/	2e\	-mus!
4r	4ryy	4r	4ryy	.
=13	=13	=13	=13	=13
4.c/	4.F\	4.a/	4.f\	Ve-
8c/	8F\	8a/	8f\	-ni-
4c/	4F\	4a/	4e-X\	-te
=14	=14	=14	=14	=14
(4B-/	(4G\	(4b-/	(8d\L	e-
.	.	.	8e\J	.
4c/)	4F\)	4a/)	4f\)	.
4B-/	4D\	4b-/	4f\	-xul-
=15	=15	=15	=15	=15
((4A/	2.C\	2cc/	(4f\	-te-
4F/)	.	.	4d\	.
4G/)	.	4b-/	4e\)	.
=16	=16	=16	=16	=16
2.A/	2.F\	2.a/	2.f\	-mus!
=17||	=17||	=17||	=17||	=17||
2A/	2F\	2cc/	2f\	Chri-
4G/	4E\	4cc/	4g\	-stus
=18	=18	=18	=18	=18
2A/	(4D\	2dd/	2f\	Chri-
.	4C\)	.	.	.
4B-/	4BB-\	4dd/	8f\L	-stus
.	.	.	8g\J	.
!LO:LB:g=original	!	!	!	!
=19	=19	=19	=19	=19
*xywh-#2:376,2619,2661,300	*xywh-#2:376,2619,2661,300	*xywh-#2:372,2329,2713,360	*xywh-#2:372,2329,2713,360	*
4c/	4F\	4ff/	4a\	na-
4c/	4A\	4ee/	4a\	-tus
4B-/	4B-\	4dd/	4f\	est
=20	=20	=20	=20	=20
(4B-/	(4B-\	4dd/	2f\	no-
4c/)	4A\)	2cc/	.	-bis,
4c/	4G\	.	4e\	.
=21	=21	=21	=21	=21
4c/	4F\	4a/	4f\	ve-
4c/	4E\	4a/	4f\	-ni-
4F/	8D\L	4a/	8f\L	-te
.	8C\J	.	8e\J	.
=22	=22	=22	=22	=22
4F/	4BB-\	4b-/	4d\	ve-
4F/	4D\	4b-/	4f\	-ni-
4G/	4GG\	4b-/	8e\L	-te
.	.	.	8d\J	.
=23	=23	=23	=23	=23
4F/	4C\	4g/	4.d\	a-
4E/	4C\	4g/	.	-do-
.	.	.	8c\	.
4B-/	4C\	4g/	8d\L	-re-
.	.	.	8e\J	.
=24	=24	=24	=24	=24
2.A/	2.FF\	2.f/	2.c\	-mus.
*v	*v	*	*	*
*	*v	*v	*
==	==	==
*-	*-	*-
!!!system-decoration: [(s1,s2)]
!!!ENC: Berenika Jozajtis
!!!END: 2022-02-18
!!!ENC: Natalia Wrzos
!!!END: 2022-02-20
!!!ENC-iiif: Jan Barakat
!!!END-iiif: 2022-08-30
